X:2
T:Beeswing
C:James Hill
Z:robin.beech@mcgill.ca
B:The Fiddle Music of James Hill
N:Originally in Bb
R:hornpipe
M:4/4
L:1/8
K:G
DF | GdBG FcAF | DBGD B,GDB, | CEGc B,DGB | (3ABG (3FGE D2 EF |
GdBg FdAf | CGEc B,GDB | CEGc BAGF | A2 G2 G2 ::
dc | BGdB gdBG | AFdA fdAF | ECGE cABG | AFGE D2 EF |
GdBg FdAf | CGEc B,GDB | CEGc BAGF | A2 G2 G2 :|
